src/topics/icons/cucumber.svg

<svg height="295" preserveAspectRatio="xMidYMid" viewBox="0 0 256 295" width="256" xmlns="http://www.w3.org/2000/svg"><path d="m129.349874 0c-71.4922365 0-129.349874 58.0177785-129.349874 129.707892 0 63.118735 45.1207794 115.564052 104.664783 127.23255v37.130122c77.413185-11.70343 145.957881-73.324517 151.072751-154.213772 3.078724-48.6885565-21.130081-98.3936878-61.959576-122.5294019-2.337657-1.3818686-4.712712-2.7537076-7.158677-3.9605463-2.492333-1.2297164-5.051641-2.4282236-7.652376-3.46547801-.82555-.3462959-1.634462-.6604417-2.468508-.99013657-2.271481-.84083587-4.563488-1.78768131-6.911827-2.47534145-12.657146-4.18333418-26.187446-6.43588777-40.236696-6.43588777z" fill="#00a818"/><path d="m156.146426 47.9270677c-4.433803-.4557704-9.102596 1.091366-12.367656 4.9607544-2.374589 3.1748826-3.858707 6.2505505-5.441768 9.4254332-4.749182 11.1120901-3.16612 23.0179006 3.95765 31.7488282 11.081418-2.3811622 20.480837-9.4750409 25.230018-20.5871307 1.583059-3.1748827 2.47353-7.2427015 2.47353-10.4175842.494708-8.4332826-6.462099-14.3706857-13.851774-15.1303009zm-57.6332767.7441131c-7.2273503.6898553-14.0991263 6.4489807-14.0991263 14.3861878 0 3.1748827.8904684 7.2427015 2.47353 10.4175842 4.7491815 11.1120898 14.890657 18.2059685 25.972078 20.5871307 6.33224-8.7309276 7.964769-20.6367381 3.215591-31.7488282-1.583062-3.1748827-3.067179-6.300158-5.441768-8.6813202-3.265064-3.8693883-7.783892-5.374667-12.1203047-4.9607543zm-38.8344396 38.1978089c-12.4816715.6423582-18.056777 16.3704893-7.6679457 24.5557343 3.1661199 2.381162 6.2332988 4.117426 9.3994187 5.704868 11.0814178 4.762324 23.8943087 3.125275 33.3926717-3.224491-2.3745925-10.318369-10.4383018-19.7934098-21.519723-24.5557343-3.9576507-1.5874411-7.173241-2.480377-11.1308917-2.480377-.8904684-.0992151-1.6414197-.0428609-2.47353 0zm121.9450873 48.1193173c-7.250542-.139536-14.593835 1.984302-20.530307 5.952906 2.374589 10.318369 10.438301 19.79341 21.519719 24.555734 3.957651 1.587441 7.173241 2.480377 11.130892 2.480377 14.247538.793721 21.222897-16.866565 10.141476-24.803772-3.16612-2.381162-6.233299-3.869389-9.399419-5.45683-4.155529-1.785871-8.512042-2.644701-12.862361-2.728415zm-108.0933133.744113c-4.3503229.083738-8.7068288.942544-12.8623613 2.728415-3.9576507 1.587442-7.0248296 3.323706-9.3994187 5.704868-10.2898904 8.730928-3.3640017 25.349455 10.883536 24.555734 3.9576507 0 7.9647718-.892936 11.1308917-2.480377 11.0814212-4.762324 18.9472487-14.237365 20.5303103-24.555734-5.936476-3.968604-13.0324165-6.092426-20.282958-5.952906zm40.0712043 24.307697c-11.081418 2.381162-20.4808362 9.475041-25.2300177 20.587131-1.5830582 3.174882-2.47353 6.994663-2.47353 10.169546-.7915308 13.493252 17.5620727 20.735953 25.4773707 10.417584 2.374592-3.174883 3.858709-6.25055 5.441768-9.425433 4.749181-10.318369 3.116649-22.22418-3.215591-31.748828zm29.435021.744113c-6.332239 8.730928-7.964768 20.636738-3.21559 31.748828 1.583062 3.174883 3.067179 6.300158 5.441771 8.68132 8.706829 9.524649 27.010958 2.480377 26.219431-9.425433 0-3.174883-.890472-7.242701-2.473533-10.417584-4.749179-11.11209-14.890658-18.205969-25.972079-20.587131z" fill="#fff"/></svg>

<?xml version="1.0" encoding="UTF-8" standalone="no"?>
<svg width="256px" height="295px" viewBox="0 0 256 295" version="1.1" xmlns="http://www.w3.org/2000/svg" xmlns:xlink="http://www.w3.org/1999/xlink" preserveAspectRatio="xMidYMid">
	<g>
		<path d="M129.349874,0 C57.8576375,0 0,58.0177785 0,129.707892 C0,192.826627 45.1207794,245.271944 104.664783,256.940442 L104.664783,294.070564 C182.077968,282.367134 250.622664,220.746047 255.737534,139.856792 C258.816258,91.1682355 234.607453,41.4631042 193.777958,17.3273901 C191.440301,15.9455215 189.065246,14.5736825 186.619281,13.3668438 C184.126948,12.1371274 181.56764,10.9386202 178.966905,9.90136579 C178.141355,9.55506989 177.332443,9.24092409 176.498397,8.91122922 C174.226916,8.07039335 171.934909,7.12354791 169.58657,6.43588777 C156.929424,2.25255359 143.399124,0 129.349874,0 L129.349874,0 L129.349874,0 Z" fill="#00A818"></path>
		<path d="M156.146426,47.9270677 C151.712623,47.4712973 147.04383,49.0184337 143.77877,52.8878221 C141.404181,56.0627047 139.920063,59.1383726 138.337002,62.3132553 C133.58782,73.4253454 135.170882,85.3311559 142.294652,94.0620835 C153.37607,91.6809213 162.775489,84.5870426 167.52467,73.4749528 C169.107729,70.3000701 169.9982,66.2322513 169.9982,63.0573686 C170.492908,54.624086 163.536101,48.6866829 156.146426,47.9270677 L156.146426,47.9270677 L156.146426,47.9270677 Z M98.5131493,48.6711808 C91.285799,49.3610361 84.414023,55.1201615 84.414023,63.0573686 C84.414023,66.2322513 85.3044914,70.3000701 86.887553,73.4749528 C91.6367345,84.5870426 101.77821,91.6809213 112.859631,94.0620835 C119.191871,85.3311559 120.8244,73.4253454 116.075222,62.3132553 C114.49216,59.1383726 113.008043,56.0130973 110.633454,53.6319351 C107.36839,49.7625468 102.849562,48.2572681 98.5131493,48.6711808 L98.5131493,48.6711808 L98.5131493,48.6711808 Z M59.6787097,86.8689897 C47.1970382,87.5113479 41.6219327,103.239479 52.010764,111.424724 C55.1768839,113.805886 58.2440628,115.54215 61.4101827,117.129592 C72.4916005,121.891916 85.3044914,120.254867 94.8028544,113.905101 C92.4282619,103.586732 84.3645526,94.1116912 73.2831314,89.3493667 C69.3254807,87.7619256 66.1098904,86.8689897 62.1522397,86.8689897 C61.2617713,86.7697746 60.51082,86.8261288 59.6787097,86.8689897 L59.6787097,86.8689897 L59.6787097,86.8689897 Z M181.623797,134.988307 C174.373255,134.848771 167.029962,136.972609 161.09349,140.941213 C163.468079,151.259582 171.531791,160.734623 182.613209,165.496947 C186.57086,167.084388 189.78645,167.977324 193.744101,167.977324 C207.991639,168.771045 214.966998,151.110759 203.885577,143.173552 C200.719457,140.79239 197.652278,139.304163 194.486158,137.716722 C190.330629,135.930851 185.974116,135.072021 181.623797,134.988307 L181.623797,134.988307 L181.623797,134.988307 Z M73.5304837,135.73242 C69.1801608,135.816158 64.8236549,136.674964 60.6681224,138.460835 C56.7104717,140.048277 53.6432928,141.784541 51.2687037,144.165703 C40.9788133,152.896631 47.904702,169.515158 62.1522397,168.721437 C66.1098904,168.721437 70.1170115,167.828501 73.2831314,166.24106 C84.3645526,161.478736 92.2303801,152.003695 93.8134417,141.685326 C87.8769657,137.716722 80.7810252,135.5929 73.5304837,135.73242 L73.5304837,135.73242 L73.5304837,135.73242 Z M113.601688,160.040117 C102.52027,162.421279 93.1208518,169.515158 88.3716703,180.627248 C86.7886121,183.80213 85.8981403,187.621911 85.8981403,190.796794 C85.1066095,204.290046 103.460213,211.532747 111.375511,201.214378 C113.750103,198.039495 115.23422,194.963828 116.817279,191.788945 C121.56646,181.470576 119.933928,169.564765 113.601688,160.040117 L113.601688,160.040117 L113.601688,160.040117 Z M143.036709,160.78423 C136.70447,169.515158 135.071941,181.420968 139.821119,192.533058 C141.404181,195.707941 142.888298,198.833216 145.26289,201.214378 C153.969719,210.739027 172.273848,203.694755 171.482321,191.788945 C171.482321,188.614062 170.591849,184.546244 169.008788,181.371361 C164.259609,170.259271 154.11813,163.165392 143.036709,160.78423 L143.036709,160.78423 L143.036709,160.78423 Z" fill="#FFFFFF"></path>
	</g>
</svg>
